X: 10
T:Vals efter Hagholm
M:3/4
L:1/8
C:Trad. Swedish
S:Andrea Hoag & Bruce Sagan
K:Bb
:"Gm"dc|d2AcBA|B2GBAG|"Dm"A2A2A2|"sl"d3e dc|"Gm"d2AcBA|B2GBAG|"Dm"F2AFAF
|"Gm"G4:|!
:"Gm"d2|gfgabg|d4cB|"F"B2{c}A2A2|c4BA|"~"B2{c}A2A2|"Gm"A2{B}G2G2|"Eb"G4"
D"^F2|"Gm"G4:|
